img/logo_basic.svg

<svg width="60" height="30" viewBox="0 0 60 30" fill="none" xmlns="http://www.w3.org/2000/svg">
<path d="M40.795 0C38.6652 0 36.6226 0.846089 35.1165 2.35214C33.6105 3.85818 32.7644 5.90088 32.7644 8.03076C32.7644 14.4205 40.795 17.9457 40.795 17.9457C40.795 17.9457 48.8257 14.3527 48.8257 8.03076C48.8252 5.90102 47.9791 3.85859 46.4731 2.35264C44.9672 0.846689 42.9248 0.000438985 40.795 0V0ZM40.795 11.6122C40.1148 11.6122 39.4499 11.4105 38.8843 11.0326C38.3188 10.6547 37.8781 10.1176 37.6178 9.48919C37.3575 8.86078 37.2893 8.16932 37.422 7.5022C37.5547 6.83507 37.8823 6.22225 38.3633 5.74128C38.8442 5.26031 39.457 4.93278 40.1242 4.80008C40.7913 4.66738 41.4827 4.73544 42.1111 4.99574C42.7395 5.25604 43.2766 5.6969 43.6545 6.26246C44.0324 6.82802 44.2342 7.49296 44.2342 8.17315C44.2342 9.08527 43.8718 9.95997 43.2268 10.6049C42.5818 11.2499 41.7071 11.6122 40.795 11.6122Z" fill="#FFDD37"/>
<path d="M56.762 0.377571H53.5481C53.0259 0.377571 52.6026 0.800872 52.6026 1.32304V18.5071C52.6026 19.0292 53.0259 19.4525 53.5481 19.4525H56.762C57.2842 19.4525 57.7075 19.0292 57.7075 18.5071V1.32304C57.7075 0.800872 57.2842 0.377571 56.762 0.377571Z" fill="#00B28F"/>
<path d="M12.1379 0.377567H9.40414C9.15338 0.377567 8.91302 0.47717 8.73571 0.654479C8.5584 0.831789 8.45879 1.07226 8.45879 1.32301V7.08854H4.84903V1.32301C4.84859 1.0721 4.74868 0.831641 4.57111 0.654378C4.39354 0.477116 4.15278 0.377567 3.90187 0.377567H1.16974C0.918983 0.377567 0.678618 0.47717 0.501308 0.654479C0.323998 0.831789 0.224396 1.07226 0.224396 1.32301V15.6921C0.225711 16.753 0.647837 17.7701 1.39814 18.5201C2.14844 19.2701 3.16562 19.6917 4.22648 19.6926H12.1379C12.3886 19.6926 12.6292 19.593 12.8065 19.4157C12.9838 19.2384 13.0834 18.9979 13.0834 18.7472V1.32301C13.0834 1.07226 12.9838 0.831789 12.8065 0.654479C12.6292 0.47717 12.3886 0.377567 12.1379 0.377567V0.377567ZM8.45879 15.8047H6.06603C5.74339 15.8043 5.43413 15.676 5.20599 15.4479C4.97784 15.2197 4.84947 14.9104 4.84903 14.5877V10.9764H8.45879V15.8047Z" fill="#00B28F"/>
<path d="M58.8932 25.6767C54.5881 25.0955 51.7019 23.5241 50.0378 19.219C49.8011 18.6097 49.503 17.9209 48.5393 17.9209H46.5241C46.1567 17.9301 45.8034 18.0634 45.5213 18.2991C45.2393 18.5349 45.0453 18.8591 44.971 19.219C43.2986 23.8404 39.6723 25.5029 34.6138 25.5029H30.6168C30.1489 25.502 29.7005 25.3157 29.3697 24.9849C29.0389 24.654 28.8525 24.2056 28.8516 23.7377V1.32301C28.8516 1.07226 28.752 0.831794 28.5747 0.654484C28.3974 0.477174 28.1571 0.377572 27.9063 0.377572H25.1095C24.8587 0.377572 24.6184 0.477174 24.4411 0.654484C24.2637 0.831794 24.1641 1.07226 24.1641 1.32301V6.865H20.5611V1.31968C20.5611 1.06877 20.4614 0.828115 20.2841 0.650542C20.1069 0.47297 19.8664 0.373058 19.6155 0.37262H16.8189C16.568 0.373058 16.3275 0.47297 16.1503 0.650542C15.973 0.828115 15.8734 1.06877 15.8734 1.31968V29.0529C15.8734 29.3038 15.973 29.5445 16.1503 29.7221C16.3275 29.8996 16.568 29.9996 16.8189 30H19.6155C19.8664 29.9996 20.1069 29.8996 20.2841 29.7221C20.4614 29.5445 20.5611 29.3038 20.5611 29.0529V10.8886H24.1641V25.8555C24.1676 26.9488 24.6034 27.9964 25.3765 28.7695C26.1496 29.5425 27.1971 29.9783 28.2903 29.9818C28.2903 29.9818 36.3408 29.9354 36.9601 29.9354C38.931 30.092 40.9083 29.7231 42.6902 28.8665C44.4721 28.0098 45.9951 26.6962 47.1038 25.0591C47.3836 24.6833 47.6004 24.3239 47.6004 24.3239C47.6004 24.3239 47.8207 24.675 48.1138 25.0591C49.3057 26.5998 50.8375 27.8443 52.5895 28.6956C54.3415 29.5469 56.2664 29.982 58.2142 29.967C58.4587 29.981 58.7003 29.9085 58.8968 29.7623C59.0933 29.6161 59.2322 29.4054 59.2889 29.1671L59.7542 26.8689C59.7828 26.7334 59.7825 26.5934 59.7538 26.4579C59.7251 26.3225 59.6686 26.1946 59.5875 26.0823C59.5064 25.97 59.4026 25.8759 59.2831 25.8061C59.1635 25.7362 59.0308 25.6922 58.8932 25.6767V25.6767Z" fill="#00B28F"/>
</svg>

<svg xmlns="http://www.w3.org/2000/svg" width="60" height="30" fill="none" xmlns:v="https://vecta.io/nano"><path d="M40.795 0a8.03 8.03 0 0 0-8.031 8.031c0 6.39 8.031 9.915 8.031 9.915s8.031-3.593 8.031-9.915c0-2.13-.847-4.172-2.353-5.678A8.03 8.03 0 0 0 40.795 0h0zm0 11.612a3.44 3.44 0 0 1-3.177-2.123 3.44 3.44 0 0 1 .745-3.748 3.44 3.44 0 0 1 3.748-.746 3.44 3.44 0 0 1 2.123 3.177 3.44 3.44 0 0 1-3.439 3.439z" fill="#ffdd37"/><path d="M56.762.378h-3.214c-.522 0-.945.423-.945.945v17.184c0 .522.423.945.945.945h3.214c.522 0 .946-.423.946-.945V1.323c0-.522-.423-.945-.946-.945zm-44.624 0H9.404c-.251 0-.491.1-.668.277s-.277.418-.277.669V7.09h-3.61V1.323c0-.251-.1-.491-.278-.669S4.153.378 3.902.378H1.17c-.251 0-.491.1-.668.277s-.277.418-.277.669v14.369a4 4 0 0 0 4.002 4h7.911a.95.95 0 0 0 .669-.277c.178-.177.277-.418.277-.669V1.323a.95.95 0 0 0-.277-.669c-.177-.178-.418-.277-.669-.277h0zM8.459 15.805H6.066a1.22 1.22 0 0 1-1.217-1.217v-3.611h3.61v4.828zm50.434 9.872c-4.305-.581-7.191-2.153-8.855-6.458-.237-.609-.535-1.298-1.498-1.298h-2.015a1.63 1.63 0 0 0-1.553 1.298c-1.672 4.621-5.299 6.284-10.357 6.284h-3.997a1.77 1.77 0 0 1-1.765-1.765V1.323a.95.95 0 0 0-.277-.669.94.94 0 0 0-.668-.277H25.11c-.251 0-.491.1-.668.277s-.277.418-.277.669v5.542h-3.603V1.32c0-.251-.1-.492-.277-.669a.95.95 0 0 0-.669-.278h-2.797c-.251 0-.491.1-.669.278s-.277.418-.277.669v27.733c0 .251.1.492.277.669a.95.95 0 0 0 .669.278h2.797c.251 0 .491-.1.669-.278s.277-.418.277-.669V10.889h3.603v14.967a4.14 4.14 0 0 0 4.126 4.126l8.67-.046a11.18 11.18 0 0 0 10.144-4.876c.28-.376.497-.735.497-.735s.22.351.513.735a12.64 12.64 0 0 0 4.476 3.636 12.65 12.65 0 0 0 5.625 1.271 1.04 1.04 0 0 0 .683-.205c.197-.147.335-.357.392-.595l.465-2.298a1 1 0 0 0 0-.411.99.99 0 0 0-.47-.652.98.98 0 0 0-.39-.129h0z" fill="#00b28f"/></svg>
